X:1
T:Blessèd Bible!
T:Alonzo Judson Abbey, 1886
T:Blessèd Bible!
T:Public Domain
T:Public Domain
T:Public Domain
C:Alonzo Judson Abbey, 1886
Z:Public Domain
%%score ( 1 2 ) ( 3 4 )
L:1/8
M:3/4
K:E
V:1 treble 
V:2 treble 
V:3 bass 
V:4 bass 
V:1
 (3(B,E)[A,F] | [B,G]2 [EG]2 (3([EG][FA])[GB] | ([Ac]>[GB]) [GB]2 [GB]>[EG] | %3
w: 1.~Bless- * èd|ble, how I * love|it, * How it doth|
w: 2.~Yes, * I’ll|my bo- som * press|thee, * Pre- cious Word,|
w: 3.~Yes, * sweet|ble, I will * hide|thee, * Deep, yes, deep-|
 [GB]3 [EG] (3([EG][DF])E x3/8 | [DF]4 (3(B,E)[A,F] | [B,G]2 [EG]2 (3([EG][FA])[GB] | %6
w: my bo- som * cheer,|hath earth * like|to co- vet, * Oh,|
w: I’ll hide thee * here,|my ve- * ry|will bless thee, * For|
w: er in my * heart;|thro’ all * my|shalt guide me, * And|
 ([Ac]>[GB]) [GB]2 [GB]>[Gc] | ([Fd]2 (3[Fd][Ge])[Fd] (3(cG)[E^A] | [DB]4 [DB]>[DB] | %9
w: what * stores of wealth|are * * here! Man * was|and doomed to|
w: thou * ev- er say’st|good * * cheer. Speak, * poor|and tell thy|
w: in * death we will|not * * part. Part * in|no, nev- er,|
 [DB]3 [DF] [E=G][EG] | [EG]2 [DF]2 [DB]>[DB] | [EB]3 [EB] [EB][E^A] | [DB]4 (3(B,E)[A,F] | %13
w: sor- row; Not one|ray of light or|bliss Could he from|earth’s trea- * sures|
w: pon- d’rings, Tell how|far thy rov- ings|led! When this book|brought back * thy|
w: nev- er, Thro’ death’s|vale, I’ll lean on|thee; Then in worlds|a- bove * for-|
 [B,G]2 [EG]2 (3([EG][FA])[GB] | ([Ac]>[GB]) [GB]2 (3([Ge][Bd])[Ac] | %15
w: row, Till his * way|was * cheered by * this.|
w: d’rings, Speak- ing * life|as * from the * dead.|
w: er, Sweet- er * still|thy * truths shall * be.|
 (3([GB]E)[FA] ([EG]2 (3[EG][FA])[DF] x | E4 ||"^Refrain" (3([GB][FA])[^EG] | %18
w: |||
w: Bless- * èd Bi- * * ble,|èd|ble, * How|
w: |||
 [FA]2 [FA]2 (3([Ac][GB])[^^F^A] | [GB]2 [Ge]2 [GB]>[EG] | [GB]3 [EG] (3([EG][DF])E x3/8 | %21
w: |||
w: it doth my * bo-|som cheer. What has|earth like this * to|
w: |||
 [DF]4 (3(B,E)[B,F] | [EG]2 [EG]2 (3([EG][FA])[GB] | ([Ac]>[GB]) [GB]2 (3([Ge][Bd])[Ac] | %24
w: |||
w: vet, O! * what|of wealth are * here!||
w: |||
 (3([GB]E)[FA] ([EG]2 (3[EG][FA])[DF] | E6 |] %26
w: ||
w: ||
w: ||
V:2
 G,2 | x6 | x6 | x16/3 E | x4 G,2 | x6 | x6 | x4 E2 | x6 | x6 | x6 | x6 | x4 G,2 | x6 | x6 | %15
w: Bi-|||What|this|||lost!|||||bor-|||
w: to|||Sure|heart|||heart,|||||wan-|||
w: Bi-|||Thou|life|||death?|||||ev-|||
 x2/3 E x16/3 | E4 || x2 | x6 | x6 | x16/3 E | x4 B,2 | x6 | x6 | x2/3 E x13/3 | E6 |] %26
w: |||||||||||
w: bless-|Bi-||||co-|stores|||||
w: |||||||||||
V:3
 z2 | [E,,E,] z [E,B,] z [E,B,] z | [E,,E,] z [E,B,] z [E,B,] z | %3
 [E,,E,] z [E,B,] z (3E,F,[G,B,] x3/8 | B,4 z2 | [E,,E,] z [E,B,] z [E,B,] z | %6
 [E,,E,] z [E,B,] z [E,B,] z | [F,,F,] z [F,B,] z (3(^A,C)[F,C] | (B,,2 B,2) z2 | B,, z B, z B, z | %10
 B,, z B, z [B,,F,]>[B,,F,] | [E,=G,]3 [E,G,] [=C,E,][C,E,] | [B,,F,]4 z2 | %13
 [E,,E,] z [E,B,] z [E,B,] z | [E,,E,] z [E,B,] z (3:2:2[E,B,]2 [E,E] | %15
 (3([E,E][G,B,])[F,C] (B,2 z) A, x | [E,G,]4 || z2 | ([B,,B,]>[B,,B,]) ([B,,B,][B,,B,]) z2 | %19
 ([E,B,]>[E,B,]) ([E,B,][E,B,]) z2 | [E,,E,] z [E,B,] z (3(E,F,)[G,B,] x3/8 | %21
 B,4 (3:2:2[E,G,]2 [E,A,] | [E,B,]2 [E,B,]2 (3:2:2[E,B,]2 [E,E] | %23
 [E,E]2 [E,E]2 (3:2:2[E,B,]2 [E,E] | (3([E,E][G,B,])[F,C] (B,3 [B,,A,]) | [E,,E,G,]6 |] %26
V:4
 x2 | x6 | x6 | x4 B,2 x3/8 | B,4 x2 | x6 | x6 | x4 F,2 | B,4 x2 | x6 | x6 | x6 | x6 | x6 | x6 | %15
 x2 B,3 B,,2 | x4 || x2 | x6 | x6 | x4 B,2 x3/8 | B,4 x2 | x6 | x6 | x2 B,3 x | x6 |] %26

